!!!!SEGMENT: pl-kk--kk-i-1--049-004_szadek-tomasz--offitium-in-melodiam-motetae-pisneme-sanctus.krn
!!!cenid: 15xx:768
!!!COM: Szadek, Tomasz
!!!COM-rismid: pe30020506
!!!CDT:
!!!CNT:
!!!OPR: Offitium in melodiam motetae Pisneme
!!!OTL: Sanctus
!!!OMV: 004
!!!PDT:
!!!AGN:
!!!SMS-siglum: PL-Kk
!!!SMS-shelfmark: Kk.I.1
!!!SMS-shelfwork: 049-004 M
!!!SMS-variant:
!!!SMS-altvar:
!!!NIFC-rismid: 300258003
!!!URL-scan: http://repozytorium.nifc.pl/skany/pl-kk-nut--i-1
!!!ONB-nifc: UWAGA: Cantus (s. 152v-160r, skan 0155-0162), Altus (s. 148r-156r, skan 0341-0349), Tenor (s. 127v-136r, skan 0518-0526), Bassus (s. 139v-146v, skan 0702-0709). Części Mszy: 1. Kyrie, 2. Et in terra, 3. Patrem, 4. Sanctus, 5. Agnus Dei
!!!AIN: 1 alto 1 bass 1 soprn 1 tenor
!!!key: G:mix
**kern	**text	**kern	**text	**kern	**text	**kern	**text
*part4	*part4	*part3	*part3	*part2	*part2	*part1	*part1
*staff4	*staff4	*staff3	*staff3	*staff2	*staff2	*staff1	*staff1
*I"BASSVS	*	*I"TENOR	*	*I"ALTVS	*	*I"CANTVS	*
*Ibass	*	*Itenor	*	*Ialto	*	*Isoprn	*
*ICvox	*	*ICvox	*	*ICvox	*	*ICvox	*
*I'B	*	*I'T	*	*I'A	*	*I'S	*
*stria6	*	*stria6	*	*stria6	*	*stria6	*
*clefF5	*	*clefC3	*	*clefC4	*	*clefC2	*
*k[b-]	*	*k[b-]	*	*k[]	*	*k[b-]	*
*G:mix	*	*G:mix	*	*G:mix	*	*G:mix	*
*M2/1	*	*M2/1	*	*M2/1	*	*M2/1	*
*met(C|)	*	*met(C|)	*	*met(C|)	*	*met(C|)	*
=1-	=1-	=1-	=1-	=1-	=1-	=1-	=1-
*	*	*	*	*lig	*	*	*
!LO:TX:t=P:problem=pięciolinia na str. 144r	!	!	!	!LO:TX:t=P:problem=wysokość poprawiona	!	!	!
00r	.	1r	.	1d	SAn-	0r	.
*	*	*lig	*	*	*	*	*
.	.	1G	Sanct-	1.g	.	.	.
*	*	*	*	*Xlig	*	*	*
=2-	=2-	=2-	=2-	=2-	=2-	=2-	=2-
.	.	1.d	.	.	.	2r	.
.	.	.	.	4f\	.	2d/	SAnc-
.	.	.	.	4e\	.	.	.
!	!	!	!	!	!	!LO:TX:t=P:problem=kreski pseudotaktowe zanotowane apostrofami zgodne z kreskami taktowymi	!
.	.	.	.	2f\	.	1.a	.
*	*	*Xlig	*	*	*	*	*
.	.	4c/	-us	4e\	.	.	.
.	.	4B-/	.	4d\	.	.	.
=3-	=3-	=3-	=3-	=3-	=3-	=3-	=3-
1r	.	4c/	.	4e\	.	.	.
.	.	4d/	.	4f\	.	.	.
.	.	2e\	.	1g	.	2g\	-tus
*lig	*	*	*	*	*	*	*
1D	SAn-	1d	.	.	.	1a	.
.	.	.	.	2f\	-ctus	.	.
*	*	*	*	*	*	*custos:b	*
!	!	!	!	!	!	!LO:LB:g=original	!
=4-	=4-	=4-	=4-	=4-	=4-	=4-	=4-
*col	*	*	*	*	*	*	*
2.G\	.	4G/	ſan-	2g\	.	2b-\	.
.	.	4A/	.	.	.	.	.
*	*	*	*	*	*ij	*	*ij
.	.	4B-/	.	2.g\	SAn-	2.b-\	SAnc-
*Xlig	*	*	*	*	*	*	*
4F\	.	4A/	.	.	.	.	.
*Xcol	*	*	*	*	*	*	*
4G\	.	4B-/	.	.	.	.	.
4A\	.	4c/	.	4f\	.	4a\	.
2B-\	.	2d\	.	4d\	.	4f\	.
.	.	.	.	4e\	.	4g\	.
=5-	=5-	=5-	=5-	=5-	=5-	=5-	=5-
2.F\	.	4c/	.	2.f\	.	4a\	.
.	.	4B-/	.	.	.	4g\	.
.	.	4A/	.	.	.	4a\	.
4E-X\	.	4G/	.	4g\	.	4b-\	.
2F\	.	2A/	.	4f\	.	4a\	.
.	.	.	.	4e\	.	4g\	.
2G\	.	2B-/	.	4d\	.	2.g\	.
.	.	.	.	4c\	.	.	.
=6-	=6-	=6-	=6-	=6-	=6-	=6-	=6-
1D	.	1A	.	1d	.	.	.
.	.	.	.	.	.	8f/L	.
.	.	.	.	.	.	8e/J	.
.	.	.	.	.	.	2f\	.
1Eny	.	2G/	-ctus	1B	.	[1gl;<	-tus
*	*	*custos:G	*	*	*	*	*Xij
!	!	!LO:LB:g=original	!	!	!	!	!
.	.	1G/	ſanc-	.	.	.	.
=7-	=7-	=7-	=7-	=7-	=7-	=7-	=7-
1C	.	.	.	1e-X	.	0g_	.
.	.	1c	.	.	.	.	.
*lig	*	*	*	*	*	*	*
1G	-ctus	.	.	[1dl;<	-ctus	.	.
*	*	*	*	*	*Xij	*	*
!	!	!LO:N:acc=#	!	!	!	!	!
!	!	!LO:TX:t=P:problem=# below	!	!	!	!	!
.	.	4Bn/	.	.	.	.	.
.	.	4A/	.	.	.	.	.
=8-	=8-	=8-	=8-	=8-	=8-	=8-	=8-
0GGl;	.	0Bnyl;	-tus	0d]	.	0g]	.
*Xlig	*	*	*	*custos:d	*	*	*
!	!	!	!	!LO:PB:g=original	!	!	!
=9-	=9-	=9-	=9-	=9-	=9-	=9-	=9-
*	*	*	*	*clefC3	*	*	*
1.G	San-	1r	.	2.d/	San-	1.b-	Sanc-
.	.	.	.	4c/	.	.	.
.	.	1.d	San-	4d/	.	.	.
.	.	.	.	4eny/	.	.	.
4F\	.	.	.	1.f\	.	4a\	.
4E\	.	.	.	.	.	4g\	.
=10-	=10-	=10-	=10-	=10-	=10-	=10-	=10-
4D\	.	.	.	.	.	4f\	.
4E\	.	.	.	.	.	4g\	.
2F\	.	2c/	.	.	.	2.a\	.
*custos:G	*	*	*	*	*	*	*
!LO:LB:g=original	!	!	!	!	!	!	!
2G\	.	2B-y/	.	2d\	.	.	.
.	.	.	.	.	.	4g\	.
2C/	.	4c/	.	2e-X\	.	1g\	.
.	.	4B-/	.	.	.	.	.
=11-	=11-	=11-	=11-	=11-	=11-	=11-	=11-
1D	.	4A/	.	1.d	-ctus	.	.
.	.	4G/	.	.	.	.	.
.	.	2A/	.	.	.	2f\	.
1G	-ctus	2G/	-ctus	.	.	1g	-tus
*	*	*	*ij	*	*	*	*
.	.	1d\	San-	2g\	.	.	.
*	*	*	*	*	*	*custos:a	*
!	!	!	!	!	!	!LO:LB:g=original	!
=12-	=12-	=12-	=12-	=12-	=12-	=12-	=12-
0r	.	.	.	2f\	.	1.a	.
.	.	4c/	.	4eny\	.	.	.
.	.	4B-/	.	4d\	.	.	.
.	.	4A/	.	4c/	.	.	.
.	.	4B-/	.	4d/	.	.	.
.	.	2c/	.	4e/	.	2.g\	.
.	.	.	.	4f/	.	.	.
=13-	=13-	=13-	=13-	=13-	=13-	=13-	=13-
1.G	San-	2d/	.	2g\	.	.	.
.	.	.	.	.	.	4a\	.
.	.	4G/	.	2.d/	.	1b-	.
.	.	4A/	.	.	.	.	.
*	*	*custos:B	*	*	*	*	*
!	!	!LO:LB:g=original	!	!	!	!	!
.	.	4B-/	.	.	.	.	.
.	.	4c/	.	4e\	.	.	.
4F\	.	2.d/	.	4f\	.	4a\	.
4E\	.	.	.	4g\	.	4g\	.
=14-	=14-	=14-	=14-	=14-	=14-	=14-	=14-
4D/	.	.	.	2.f\	.	1a	.
4E/	.	4c/	.	.	.	.	.
2F\	.	1c	.	.	.	.	.
.	.	.	.	4e\	.	.	.
1G	-ctus	.	.	1d	.	1.g	San-
.	.	2B-/	.	.	.	.	.
=15-	=15-	=15-	=15-	=15-	=15-	=15-	=15-
2C/	.	2c/	-ctus	2e\	.	.	.
*	*	*	*Xij	*	*	*	*
2.F\	.	2.A/	ſan-	2c/	.	4f/	.
.	.	.	.	.	.	4e/	.
*	*	*	*	*custos:f	*	*	*
!	!	!	!	!LO:LB:g=original	!	!	!
.	.	.	.	1f	ſan-	4d/	.
4E\	.	4G/	.	.	.	4e/	.
2D/	.	4A/	.	.	.	4f/	.
.	.	4B-/	.	.	.	4g\	.
=16-	=16-	=16-	=16-	=16-	=16-	=16-	=16-
*	*	*	*	*k[b-]	*	*	*
2C/	.	4c/	.	2e\	.	4a\	.
.	.	4B-/	.	.	.	4g\	.
2E\	.	4A/	.	2c/	-ctus.	1g	.
.	.	4G/	.	.	.	.	.
1D	.	1A	.	1d	.	.	.
.	.	.	.	.	.	2f\	-ctus
=17-	=17-	=17-	=17-	=17-	=17-	=17-	=17-
0G 0GGl;	.	0Gl;	-ctus	0cl/;	.	0gl;<	.
!LO:LB:g=original	!	!LO:PB:g=original	!	!	!	!	!
=18-	=18-	=18-	=18-	=18-	=18-	=18-	=18-
00r	.	2.G/	SAn-	1.g	San-	1.b-	San
.	.	4A/	.	.	.	.	.
.	.	4B-/	.	.	.	.	.
.	.	4c/	.	.	.	.	.
.	.	1d\	.	4f\	.	4a\	.
.	.	.	.	4e\	.	4g\	.
=19-	=19-	=19-	=19-	=19-	=19-	=19-	=19-
.	.	.	.	2d\	.	2f\	.
.	.	4c/	.	2e\	-ctus	1g	.
.	.	4B-/	.	.	.	.	.
.	.	1A	.	2.c/	.	.	.
.	.	.	.	.	.	2f\	.
.	.	.	.	4d/	.	.	.
*	*	*	*	*	*	*custos:g	*
!	!	!	!	!	!	!LO:PB:g=original	!
=20-	=20-	=20-	=20-	=20-	=20-	=20-	=20-
2.C/	San-	0G	-ctus	4e\	.	1g	.
.	.	.	.	4f\	.	.	.
.	.	.	.	1g	.	.	.
4D/	.	.	.	.	.	.	.
4E/	.	.	.	.	.	2r	.
4F/	.	.	.	.	.	.	.
1G\	.	.	.	1d\	.	2b-\	ſan-
=21-	=21-	=21-	=21-	=21-	=21-	=21-	=21-
.	.	2r	.	.	.	2b-\	-ctus
4F\	.	2d/	do-	2f\	do-	2a\	d(o-
4E\	.	.	.	.	.	.	.
1D	-ctus	2d/	-mi-	2f\	-mi-	2a\	-mi)-
.	.	2d/	-nus	2f\	-nus	2a\	-nus
=22-	=22-	=22-	=22-	=22-	=22-	=22-	=22-
0r	.	4B-/	de-	4d\	de-	1b-	de-
.	.	4c/	.	4e\	.	.	.
.	.	4d/	.	4f\	.	.	.
.	.	4e/	.	4g\	.	.	.
*	*	*	*	*custos:g	*	*	*
!	!	!	!	!LO:LB:g=original	!	!	!
.	.	2f\	-us	4a\	-us	2g\	-(us)
.	.	.	.	4g\	.	.	.
.	.	2g\	Sab-	1g\	ſab-	2b-\	Sab-
=23-	=23-	=23-	=23-	=23-	=23-	=23-	=23-
2r	.	1d	-ba-	.	.	1a	-ba-
!	!	!	!	!LO:TX:t=P:problem=# above	!	!	!
2D/	d(o-	.	.	4f#X\	-ba-	.	.
.	.	.	.	4e\	.	.	.
2D/	-mi)-	1A	-oth	1f#	-oth	2a\	-ot
2D/	-nus	.	.	.	.	2d/	.
=24-	=24-	=24-	=24-	=24-	=24-	=24-	=24-
4BB-/	De-	1B-	de-	1d	.	2f/	.
4C/	.	.	.	.	.	.	.
4D/	.	.	.	.	.	2.f/	.
4E/	.	.	.	.	.	.	.
2F\	-us	2A/	-us	2c/	.	.	.
.	.	.	.	.	.	4e/	.
2G\	Sab-	1G/	Sab-	2B-/	.	4d/	.
.	.	.	.	.	.	4c/	.
=25-	=25-	=25-	=25-	=25-	=25-	=25-	=25-
1D	-ba-	.	.	1A	.	1d	.
.	.	2F/	-ba-	.	.	.	.
*	*	*custos:G	*	*	*	*	*
!	!	!LO:LB:g=original	!	!	!	!	!
2GG/	-ot	2G/	-ot	2B-/	.	2d/	.
*	*ij	*	*	*	*ij	*	*
2D/	d(o-	2A/	d(o-	2d/	do-	2f\	d(o-
=26-	=26-	=26-	=26-	=26-	=26-	=26-	=26-
2D/	-mi)-	2A/	-mi)-	2d/	-mi-	2f\	-mi)-
2D/	-nus	2A/	-nus	2d/	-nus	2f\	-nus
*custos:BB	*	*	*	*	*	*custos:b	*
*clefF4	*	*	*	*	*	*	*
!LO:LB:g=original	!	!	!	!	!	!LO:LB:g=original	!
!LO:TX:t=P:problem=sześciolinia od str. 145v	!	!	!	!	!	!	!
4BB-/	De-	1d	de-	1fny	de-	1b-	De-
4C/	.	.	.	.	.	.	.
4D/	.	.	.	.	.	.	.
4E/	.	.	.	.	.	.	.
=27-	=27-	=27-	=27-	=27-	=27-	=27-	=27-
2F\	-us	2c/	-us	2f\	-us	2a\	-us
2G\	Sab-	2B-/	.	2d/	ſab-	1g	Sa-
1D	.	1A	.	1d	-ba-	.	.
.	.	.	.	.	.	2f\	-ba-
=28-	=28-	=28-	=28-	=28-	=28-	=28-	=28-
2G\	.	2B-/	Sab-	2d/	-oth	[0gl;<	-oth.
*	*	*	*	*	*Xij	*	*
1C	.	1G	-ba-	1e-X	ſa-	.	.
2C/	-ba-	1c\	.	2e-\	-ba-	.	.
=29-	=29-	=29-	=29-	=29-	=29-	=29-	=29-
*lig	*	*	*	*	*	*	*
1G	-ot	.	.	0dl;	-oth	0g]	.
*	*Xij	*	*	*	*	*	*
!	!	!LO:N:acc=#	!	!	!	!	!
!	!	!LO:TX:t=P:problem=# below	!	!	!	!	!
.	.	4Bn/	-oth.	.	.	.	.
.	.	4A/	.	.	.	.	.
1GGl;	.	1Bnyl;	.	.	.	.	.
*Xlig	*	*	*	*custos:g	*	*	*
!	!	!	!	!LO:LB:g=original	!	!	!
=30-	=30-	=30-	=30-	=30-	=30-	=30-	=30-
1.G	Ple-	1.d	Ple-	1g	Ple-	1b-	Ple-
.	.	.	.	2g\	-ni	2b-\	-ni
2G\	-ni	2d/	-ni	2g\	ſunt	2b-\	ſu(n)t
=31-	=31-	=31-	=31-	=31-	=31-	=31-	=31-
2D/	ſunt	2d/	ſunt	2.f\	coe-	2a\	coe-
2F\	coe-	2c/	coe-	.	.	2.a\	-li
.	.	.	.	4eny\	-li	.	.
2G\	-li	2B-y/	-li	2d\	.	.	.
.	.	.	.	.	.	4g\	et
2C/	et	2c/	e(t)	2e-X\	e(t)	1g\	t(er)-
*	*	*custos:A	*	*	*	*	*
!	!	!LO:LB:g=original	!	!	!	!	!
=32-	=32-	=32-	=32-	=32-	=32-	=32-	=32-
1D	t(er)-	1A	t(er)-	1d	t(er)-	.	.
.	.	.	.	.	.	2f\	.
1G	-ra	2G/	-ra	2d/	-ra	2g\	-ra
*	*	*	*	*	*ij	*	*
.	.	1d\	ple-	2.g\	coe-	2.G/	coe-
=33-	=33-	=33-	=33-	=33-	=33-	=33-	=33-
2r	.	.	.	.	.	.	.
.	.	.	.	4f\	-li	4A/	.
*	*ij	*	*	*	*	*	*
2G\	coe-	2d/	-ni	4d/	e(t)	2B-/	-li
.	.	.	.	4eny/	.	.	.
*custos:F	*	*	*	*	*	*	*
!LO:LB:g=original	!	!	!	!	!	!	!
2.F\	-li	2A/	ſ(un)t	1.f	t(er)-	4c/	et
.	.	.	.	.	.	4B-/	.
.	.	2c/	.	.	.	4A/	.
4E/	et	.	.	.	.	4G/	.
=34-	=34-	=34-	=34-	=34-	=34-	=34-	=34-
2D/	t(er)-	2d/	.	.	.	4A/	.
.	.	.	.	.	.	4G/	.
2E/	.	2G/	.	2c/	-ra	1g	.
*	*	*	*	*	*Xij	*	*
1D	-ra	1A	.	1.d	ple-	.	.
.	.	.	.	.	.	2f\	ter-
*	*Xij	*	*	*	*	*custos:g	*
!	!	!	!	!	!	!LO:LB:g=original	!
=35-	=35-	=35-	=35-	=35-	=35-	=35-	=35-
!	!	!	!	!	!	!LO:TX:t=P:problem=wykreślone cztery błędne nuty	!
2r	.	2G/	.	.	.	2g\	-ra
2G\	glo-	2B-/	coe-	2d/	-ni	4d/	coe-
.	.	.	.	.	.	4e/	.
2.F\	-ri-	4c/	-li	2A/	sunt	4f/	-li
.	.	4B-/	.	.	.	4g/	.
.	.	4A/	.	2c/	coe-	1a\	.
4E/	-a	4G/	.	.	.	.	.
*	*	*	*	*custos:d	*	*	*
!	!	!	!	!LO:PB:g=original	!	!	!
=36-	=36-	=36-	=36-	=36-	=36-	=36-	=36-
2D/	.	2F/	e(t)	2d/	-li	.	.
2E/	.	1G	t(er)-	2G/	et	2g\	et
2.D/	tu-	.	.	1A	ter-	1d	ter-
.	.	2F/	-ra	.	.	.	.
4C/	-a	.	.	.	.	.	.
=37-	=37-	=37-	=37-	=37-	=37-	=37-	=37-
2BB-/	.	2G/	.	2B-/	-ra	2d/	-ra
2AA/	.	2A/	.	2c/	glo-	2f\	glo-
2GG/	.	2B-/	glo-	1d	-ri-	2g\	-ri-
2D/	.	4A/	-ri:	.	.	2.a\	-a
.	.	4B-/	.	.	.	.	.
*	*	*custos:c	*	*	*	*	*
!	!	!LO:LB:g=original	!	!	!	!	!
=38-	=38-	=38-	=38-	=38-	=38-	=38-	=38-
!	!	!LO:TX:t=P:problem=wysokość poprawiona	!	!	!	!	!
2C/	.	4c/	.	2e-X\	-a	.	.
.	.	4B-/	.	.	.	4g\	.
2E-X/	.	4A/	.	2c/	tu-	2.g\	.
.	.	4G/	.	.	.	.	.
1D	.	1A	tu-	[1dl;<	-a.	.	.
.	.	.	.	.	.	8f/L	.
.	.	.	.	.	.	8e/J	.
.	.	.	.	.	.	2f\	tu-
=39-	=39-	=39-	=39-	=39-	=39-	=39-	=39-
0GGl;	.	0Gl;	-a.	0d]	.	0gl;<	-a
=40-	=40-	=40-	=40-	=40-	=40-	=40-	=40-
*M3/1	*	*M3/1	*	*M3/1	*	*M3/1	*
*met(3)	*	*met(3)	*	*met(3)	*	*met(3)	*
00.r	.	1r	.	0d	O-	0.r	.
.	.	1r	.	.	.	.	.
.	.	1G	O-	1g	-ſan-	.	.
=41-	=41-	=41-	=41-	=41-	=41-	=41-	=41-
*	*	*	*	*	*	*col	*
.	.	0d	-ſan-	0f	-na	1d	O-
.	.	.	.	.	.	0a	-ſan-
.	.	1c	-na	1e	in	.	.
*	*	*	*	*	*	*Xcol	*
=42-	=42-	=42-	=42-	=42-	=42-	=42-	=42-
0.r	.	2G/	in	2d/	ex-	0b-	-na
.	.	2A/	.	2c/	-cel-	.	.
.	.	2B-/	.	2d/	.	.	.
.	.	2c/	.	2e/	.	.	.
.	.	1d	ex-	2f/	.	1a	in
.	.	.	.	2d/	.	.	.
*	*	*	*	*custos:g	*	*	*
!	!	!	!	!LO:LB:g=original	!	!	!
=43-	=43-	=43-	=43-	=43-	=43-	=43-	=43-
1r	.	1e-X	-cel-	0g	.	1g	ex-
*	*	*col	*	*	*	*	*
1r	.	0d	-ſis	.	.	0a	-cel-
1D	O-	.	.	1f	.	.	.
*	*	*Xcol	*	*	*	*	*
=44-	=44-	=44-	=44-	=44-	=44-	=44-	=44-
*	*	*	*ij	*	*	*	*
0G	-ſan-	0B-	O-	1g	-ſis	1b-	-ſis
*	*	*	*	*	*ij	*	*
.	.	.	.	1d	O-	1g	in
1F	-na	1c	-ſan-	1f	-ſan-	1.a	ex-
*	*	*custos:d	*	*	*	*	*
!	!	!LO:PB:g=original	!	!	!	!	!
=45-	=45-	=45-	=45-	=45-	=45-	=45-	=45-
2D/	in	1d	-na	0f	-na	.	.
2Eny/	.	.	.	.	.	2g\	-cel-
2F\	.	2c/	.	.	.	2a\	.
2G\	.	2B-/	.	.	.	2b-\	.
1A	.	1c	in	1e	in	2a\	.
.	.	.	.	.	.	2g\	.
=46-	=46-	=46-	=46-	=46-	=46-	=46-	=46-
1B-	ex-	1d	ex-	0d	ex-	2f\	.
.	.	.	.	.	.	2g\	.
0A	-cel-	0eny	-cel-	.	.	0a	.
.	.	.	.	1c	-cel-	.	.
*	*	*	*	*	*	*custos:a	*
!	!	!	!	!	!	!LO:PB:g=original	!
=47-	=47-	=47-	=47-	=47-	=47-	=47-	=47-
1D	-ſis	2f\	.	0d	-ſis	1a	-ſis
.	.	2e\	.	.	.	.	.
*col	*ij	*	*	*	*Xij	*	*
0G	in	2d\	.	.	.	1r	.
.	.	2c\	.	.	.	.	.
*	*	*	*	*	*	*	*ij
.	.	1B-	-ſis	1d	O-	1d	O-
*Xcol	*	*	*Xij	*	*	*	*
=48-	=48-	=48-	=48-	=48-	=48-	=48-	=48-
0F	ex-	1.c	in	0f	-ſan-	0a	-ſan-
.	.	2A/	ex-	.	.	.	.
1G	.	2B-/	-cel-	1d	-na	1g	-na
.	.	2c/	-ſis	.	.	.	.
=49-	=49-	=49-	=49-	=49-	=49-	=49-	=49-
1B-	-cel-	1d	.	1d	in	1f	in
1A	.	1c	.	2e\	ex-	1a	ex-
.	.	.	.	2f\	.	.	.
1G	-ſis	1G	o-	1g	.	1b-	-cel-
*custos:D	*Xij	*	*	*	*	*	*
!LO:LB:g=original	!	!	!	!	!	!	!
=50-	=50-	=50-	=50-	=50-	=50-	=50-	=50-
1r	.	0d	-ſan-	1.f	.	0a	-ſis
*	*	*	*	*	*	*	*Xij
1D	.	.	.	.	.	.	.
.	.	.	.	2d\	.	.	.
1A	.	1c	-na	2e\	.	1a	in
.	.	.	.	2f\	.	.	.
*	*	*custos:G	*	*custos:g	*	*	*
!	!	!LO:LB:g=original	!	!LO:LB:g=original	!	!	!
=51-	=51-	=51-	=51-	=51-	=51-	=51-	=51-
0G	.	2G/	in	2g\	.	2b-\	ex-
.	.	2A/	.	2a\	.	2a\	-cel-
.	.	2B-/	ex-	2b-\	.	2g\	.
.	.	2c/	.	2a\	.	2f\	-ſis
1G	.	1d	.	0.g	.	1g	.
=52-	=52-	=52-	=52-	=52-	=52-	=52-	=52-
1C	.	1e-X	-cel-	.	.	1cc	.
*col	*	*	*	*	*	*	*
0D	.	0d	-ſis	.	.	0a	.
.	.	.	.	1f	-cel-	.	.
*Xcol	*	*	*	*	*	*	*
=53-	=53-	=53-	=53-	=53-	=53-	=53-	=53-
*	*	*	*ij	*	*	*	*
0G	.	2B-/	in	1g	-ſis	1r	.
.	.	2A/	.	.	.	.	.
.	.	2B-/	ex-	1G	.	1d	O-
.	.	2c/	.	.	.	.	.
1D	O-	1.d	-cel-	1A	.	1a	-ſan-
=54-	=54-	=54-	=54-	=54-	=54-	=54-	=54-
*col	*	*	*	*	*	*	*
0G	-ſan-	.	.	2B-/	.	1g	-na
.	.	2c/	.	2c/	.	.	.
.	.	1B-	.	2d/	.	1b-	in
.	.	.	.	2e/	.	.	.
*Xcol	*	*	*	*	*	*	*
0F	-na	2c/	-ſis	1f	.	2a\	ex-
*	*	*	*Xij	*	*	*	*
!	!	!LO:TX:t=P:problem=wysokość poprawiona	!	!	!	!	!
.	.	2B-/	in	.	.	2g\	.
*	*	*	*	*	*	*custos:f	*
!	!	!	!	!	!	!LO:LB:g=original	!
=55-	=55-	=55-	=55-	=55-	=55-	=55-	=55-
*	*	*	*	*lig	*	*	*
.	.	2A/	ex-	1c	.	2f/	.
.	.	2G/	-cel-	.	.	2e/	.
1D	in	2A/	-ſis.	1d	.	2f/	-cel-
.	.	2B-/	.	.	.	2g/	.
*	*	*custos:c	*	*Xlig	*	*	*
!	!	!LO:LB:g=original	!	!	!	!	!
1C	ex-	2c/	.	1e	.	2a/	.
.	.	2B-/	.	.	.	2g/	.
=56-	=56-	=56-	=56-	=56-	=56-	=56-	=56-
*col	*	*	*	*	*	*	*
1E	.	2A/	.	1c	.	0g	.
.	.	2G/	.	.	.	.	.
*	*	*col	*	*col	*	*	*
0D	-cel-	0A	.	0d	.	.	.
.	.	.	.	.	.	1f	.
*Xcol	*	*Xcol	*	*Xcol	*	*	*
=57-	=57-	=57-	=57-	=57-	=57-	=57-	=57-
0G	-ſis	0B-	.	0.d	.	[0.gl;<	-ſis
1r	.	1r	.	.	.	.	.
*	*	*	*	*custos:e-	*	*	*
!	!	!	!	!LO:LB:g=original	!	!	!
=58-	=58-	=58-	=58-	=58-	=58-	=58-	=58-
1C	.	1c	.	1e-X	in	0.g_	.
1C	.	1c	.	1e-	ex	.	.
1C	.	1c	.	1e-	cel-	.	.
=59-	=59-	=59-	=59-	=59-	=59-	=59-	=59-
0.Gl;<	.	0.B-l;	.	0.dl;<	-ſis	0.g]	.
!LO:PB:g=original	!	!	!	!	!	!	!
=60-	=60-	=60-	=60-	=60-	=60-	=60-	=60-
*M2/1	*	*M2/1	*	*M2/1	*	*M2/1	*
*met(C|)	*	*met()	*	*met()	*	*met()	*
1r	.	1G	Be-	1g	Be-	1b-	Be-
!	!	!	!	!LO:TX:t=P:problem=# above	!	!	!
1D	Be-	2d\	-ne-	2f#X\	-ne-	2a\	.
.	.	1d\	-dic-	2f#\	-dic-	2a\	-ne-
=61-	=61-	=61-	=61-	=61-	=61-	=61-	=61-
2G\	-ne-	.	.	2g\	-tus	2g\	-dic-
1G	-dic-	2e-X\	-tus	2.g\	qui	2.b-\	-tus
.	.	1d	qui	.	.	.	.
.	.	.	.	4fny\	.	4a\	.
2B-\	-tus	.	.	4d\	ve-	4f\	qui
.	.	.	.	4eny\	.	4g\	.
=62-	=62-	=62-	=62-	=62-	=62-	=62-	=62-
1F	q(ui)	1c	ve-	4f\	.	4a\	.
.	.	.	.	4g\	.	4g\	ve-
.	.	.	.	2.a\	.	4f\	.
.	.	.	.	.	.	4e\	.
1G	ve-	2B-/	-nit	.	.	2d/	.
.	.	.	.	4g\	.	.	.
*	*	*	*ij	*	*	*	*
.	.	2G/	Be-	1g\	.	2B-/	.
*	*	*	*	*	*	*custos:A	*
!	!	!	!	!	!	!LO:LB:g=original	!
=63-	=63-	=63-	=63-	=63-	=63-	=63-	=63-
1D	-nit	2d\	.	.	.	2A/	-nit
.	.	1d	-ne-	4f\	.	2d/	be-
.	.	.	.	4e\	-nit	.	.
0r	.	.	.	4f\	.	2a\	-ne-
.	.	.	.	4g\	.	.	.
*	*	*custos:f	*	*	*	*	*
!	!	!LO:LB:g=original	!	!	!	!	!
.	.	2f\	.	2.a\	qui	2a\	-d(i)c-
=64-	=64-	=64-	=64-	=64-	=64-	=64-	=64-
.	.	2c/	.	.	.	2cc\	.
.	.	.	.	4g\	.	.	.
.	.	2e-X\	.	1g	ve-	2g\	.
1D	.	1d	.	.	.	1a	.
.	.	.	.	2f\	.	.	.
*	*	*	*	*custos:g	*	*	*
!	!	!	!	!LO:PB:g=original	!	!	!
=65-	=65-	=65-	=65-	=65-	=65-	=65-	=65-
1G	.	2.B-/	-di-	2g\	-nit	1d	-t(us)
*	*	*	*	*	*ij	*	*
.	.	.	.	2G/	Be-	.	.
.	.	4c/	.	.	.	.	.
2G\	.	4d/	.	2d/	-ne-	1b-	be-
.	.	4c/	.	.	.	.	.
1B-\	.	4B-/	.	1d\	-dic-	.	.
.	.	4A/	.	.	.	.	.
=66-	=66-	=66-	=66-	=66-	=66-	=66-	=66-
.	.	2G/	-tus	.	.	2b-\	-ne-
1F	.	4A/	qui	1f	-tus	2a\	-dic-
.	.	4B-/	.	.	.	.	.
.	.	2c/	ve-	.	.	2a\	-tus
2G\	.	2B-/	.	2d/	qui	1g\	.
=67-	=67-	=67-	=67-	=67-	=67-	=67-	=67-
1D	.	1A	.	1d	ve-	.	.
.	.	.	.	.	.	2f\	.
2r	.	2G/	-nit	2d/	-nit	2g\	.
*	*	*	*Xij	*	*Xij	*	*
2D/	in	2F/	in	2A/	.	2d/	in
=68-	=68-	=68-	=68-	=68-	=68-	=68-	=68-
2D/	no-	2F/	no-	2A/	in	2d/	no-
2BB-/	-mi-	2B-/	-(m)i-	2d/	no-	2f/	-mi-
*custos:F	*	*	*	*	*	*	*
!LO:LB:g=original	!	!	!	!	!	!	!
2F\	-ne	2A/	-(n)e	2c/	-mi-	2f/	-ne
2G\	do-	1G/	d(o-	2B-/	-ne	2d/	do-
=69-	=69-	=69-	=69-	=69-	=69-	=69-	=69-
1D	-mi-	.	.	1A	d(o-	1d	-mi-
.	.	2F/	-mi)-	.	.	.	.
*	*	*	*	*	*	*custos:d	*
!	!	!	!	!	!	!LO:LB:g=original	!
1G	-ni	2G/	-ni	2B-/	-mi)-	2d/	-ni
*	*	*custos:d	*	*	*	*	*
!	!	!LO:PB:g=original	!	!	!	!	!
.	.	2d/	in	2B-/	-ni	2g\	in
=70-	=70-	=70-	=70-	=70-	=70-	=70-	=70-
1r	.	2d/	no-	2B-/	.	2f\	no:
.	.	2c/	-(m)i-	2e-X\	.	2g\	.
2r	.	2f\	-(n)e	4d/	.	2a\	.
.	.	.	.	4c/	.	.	.
2G\	.	2g\	do-	4B-/	.	1b-\	.
.	.	.	.	4A/	.	.	.
=71-	=71-	=71-	=71-	=71-	=71-	=71-	=71-
2G\	.	1d	-mi-	2G/	.	.	.
2F\	.	.	.	2A/	.	2a\	.
*	*	*	*	*custos:d	*	*	*
!	!	!	!	!LO:LB:g=original	!	!	!
2B-\	.	2G/	-ni	2d\	in	1g	.
2c\	.	1c\	.	1eny\	no-	.	.
=72-	=72-	=72-	=72-	=72-	=72-	=72-	=72-
1G	.	.	.	.	.	2r	.
*	*	*	*	*	*	*	*ij
.	.	2B-/	.	2d\	-(m)i-	2g\	in
2C/	.	2c/	.	2e\	-(n)e	2g\	no-
2F/	.	2c/	.	2.a\	d(o-	2f\	-mi-
=73-	=73-	=73-	=73-	=73-	=73-	=73-	=73-
2E-X/	.	2e-X\	.	.	.	2b-\	-ne
.	.	.	.	4g\	-mi)-	.	.
2C/	.	2e-\	.	1g	-ni	2cc\	do-
1D	.	2.d\	.	.	.	1a	-mi-
.	.	.	.	2f\	.	.	.
.	.	4c/	.	.	.	.	.
=74-	=74-	=74-	=74-	=74-	=74-	=74-	=74-
2G\	.	2B-/	.	2g\	.	2d/	-ni
*	*	*	*	*	*	*	*Xij
2C/	.	2c/	.	2e\	do-	2g\	in
1D	.	1A	.	1d	-mi-	2g\	no-
.	.	.	.	.	.	2f\	-(m)i-
=75-	=75-	=75-	=75-	=75-	=75-	=75-	=75-
2r	.	2G/	.	2d/	-ni	2b-\	-(n)e
*	*	*	*	*	*ij	*	*
2D/	.	2d/	in	2f\	in	2.a\	do-
*custos:D	*	*	*	*	*	*	*
!LO:LB:g=original	!	!	!	!	!	!	!
2D/	.	2d/	no-	2f\	no-	.	.
.	.	.	.	.	.	4f/	.
2BB-/	.	2d/	-(m)i-	2f\	-(m)i-	2b-\	.
*	*	*custos:c	*	*	*	*	*
!	!	!LO:LB:g=original	!	!	!	!	!
=76-	=76-	=76-	=76-	=76-	=76-	=76-	=76-
2F\	.	2c/	-(n)e	2f\	-(n)e	4a\	.
.	.	.	.	.	.	4g\	.
2G\	.	2B-/	.	2d/	d(o-	1g	-mi-
1D	.	1A	.	1d	-mi)-	.	.
.	.	.	.	.	.	2f\	.
=77-	=77-	=77-	=77-	=77-	=77-	=77-	=77-
0GGl;	.	0Gl;	.	0dl;<	-ni	0gl;<	-ni
*	*	*	*	*	*Xij	*	*
==	==	==	==	==	==	==	==
*-	*-	*-	*-	*-	*-	*-	*-
!!!system-decoration: [(*)]
!!!RDF**kern: > = above
!!!RDF**kern: < = below
!!!RDF**kern: l = terminal long
!!!ENC: Mateusz Solarz
!!!END: 2022-03-14
!!!ENC: Andrzej Kubiczek
!!!END: 2022-03-20
